X:1
T:Title
%%score { ( 1 3 ) | ( 2 4 ) }
L:1/8
M:3/4
K:Eb
V:1 treble nm="Grand Piano"
V:3 treble 
V:2 bass 
V:4 bass 
V:1
 z2 z2[Q:1/4=110] E2 | G2 F2 E2 | B2 A2 G2 | [A,DF]2 [G,E]2 [B,DF]2 | [B,EG]4 [B,EG]2 | %5
 [A,EA]2 [EB]2 [Ec]2 | [Ec]2 [EF]2 [Ec]2 | B6- | B4 z2 | [Ee]2 [Fd]2 [_Gc]2 | [GB]2 G2 E2 | %11
 c2 B2 G2 | [B,DF]4 [A,DF]2 | [G,E]2 [G,E]2 [G,E]2 | [A,F]2 G2 [A,DF]2 | E6- | E4 z2 | c2 c2 c2 | %18
 B4 z2 | A2 [DA]2 [DA]2 | G4 G2 | F2 B2 d2 | c2 G2 =A2 | [B,B]2- [B,-FB-]2 [B,-EB-]2 | %24
 [B,-DB-]2 [B,EB]2 [FB]2 | [Ee]2 [Fd]2 [_Gc]2 | [GB]2 G2 E2 | c2 B2 G2 | [DF]4 [DF]2 | %29
 E2 E2 [G,E]2 | [A,F]2 G3 [A,DF] | E6- |[M:2/4] E4 |] %33
V:2
 z2 z2 [E,G,]2 | [E,B,E]2 [E,A,D]2 [E,G,]2 | [G,B,E]2 [F,B,D]2 [E,B,E]2 | B,,2 B,,2 B,,2 | %4
 E,4 _D,2 | C,2 [B,,G,]2 [A,,A,]2 | [=A,,F,]2 [A,,F,]2 [A,,F,]2 | F,4 G,2 | A,2 G,2 [B,,F,]2 | %9
 [E,G,]2 [E,A,]2 [E,=A,]2 | [E,B,]2 [E,B,E]2 [E,G,]2 | [E,A,E]2 [E,G,E]2 [E,B,E]2 | B,,4 B,,2 | %13
 E,2 E,2 C,2 | z2 B,2 B,,2 | [E,G,]4 [E,A,]2 | [E,G,]4 z2 | [A,E]2 [A,E]2 [A,E]2 | [G,B,E]4 z2 | %19
 [F,B,D]2 [B,,B,]2 [B,,B,]2 | [E,B,E]4 [E,B,E]2 | [F,B,D]2 [F,B,D]2 [F,B,D]2 | %22
 [F,=A,E]2 [F,B,E]2 [F,CE]2 | B,,2 D,2 C,2 | B,,2 C,2 [D,A,]2 | [E,G,]2 [E,A,]2 [E,=A,]2 | %26
 [E,B,]2 [E,B,E]2 [E,G,]2 | [E,A,E]2 [E,G,E]2 [E,B,E]2 | [B,,B,]4 [B,,A,]2 | [E,G,]2 G,2 C,2 | %30
 z2 B,3 B,, | [E,G,]4 [A,,A,]2 |[M:2/4] [E,G,]4 |] %33
V:3
 x6 | x6 | x6 | x6 | x6 | x6 | x6 | D4 E2 | F2 E2 [DB]2 | x6 | x6 | x6 | x6 | x6 | D4 z2 | %15
 z2 z2 C2 | B,4 z2 | x6 | x6 | x6 | x6 | x6 | x6 | D2 z2 z2 | x6 | x6 | x6 | x6 | x6 | x6 | D6 | %31
 z2 z2 C2 |[M:2/4] B,4 |] %33
V:4
 x6 | x6 | x6 | x6 | x6 | x6 | x6 | B,,6- | B,,4 z2 | x6 | x6 | x6 | x6 | x6 | B,,4 z2 | x6 | x6 | %17
 x6 | x6 | x6 | x6 | x6 | x6 | x6 | x6 | x6 | x6 | x6 | x6 | x6 | B,,6 | x6 |[M:2/4] x4 |] %33

